icons/core/upload.svg

<svg width="32" height="32" viewBox="0 0 32 32" xmlns="http://www.w3.org/2000/svg"><path fill-rule="evenodd" clip-rule="evenodd" d="M17.0001 11.9142L17.0001 30L15.0001 30L15.0001 11.9142L8.2071 18.7071L6.7929 17.2929L15.293 8.79291L16.0001 8.08581L16.7072 8.79291L25.2071 17.2929L23.7929 18.7071L17.0001 11.9142ZM28 4.00002L28 8.00002L26 8.00002L26 4.00002L6 4.00002L6 8.00002L4 8.00002L4 4.00002C4 2.89545 4.89543 2.00002 6 2.00002L26 2.00002C27.1046 2.00002 28 2.89545 28 4.00002Z"/></svg>

<svg viewBox="0 0 32 32" xmlns="http://www.w3.org/2000/svg"><path fill-rule="evenodd" d="M17 11.914V30h-2V11.914l-6.793 6.793-1.414-1.414 8.5-8.5.707-.707.707.707 8.5 8.5-1.414 1.414L17 11.914zM28 4v4h-2V4H6v4H4V4a2 2 0 012-2h20a2 2 0 012 2z"/></svg>
